X:2091
T:Moghrey laa boaldyn 
C:Traditional
O:Isle of Man
Z:Clague Collection
B:Kiaull Vannin #91 
M:4/4 
L:1/4
Q:60 
K:D 
E/G/|B>c d/c/ B/A/|F/E/ D/E/ F G|F E E E|E3 E/G/| 
B B d e|f f/d/ e c|d B c e/c/|B3 E/G/| 
B B d e|f f/d/ e c|d B c/d/ e/c/|B3 E/G/| 
B>c d/c/ B/A/|F D/E/ F A|F/G/ E E E|E3|| 

